X:1
T:Title
%%score ( 1 2 ) ( 3 4 )
L:1/8
Q:1/4=120
M:4/4
K:C
V:1 treble nm="Voice"
V:2 treble 
V:3 alto nm="Voice"
V:4 alto 
V:1
 x8 | x8 | x8 | x8 | x8 | x8 | x8 | x8 | x8 | x8 | x8 | x8 | x8 | x8 | x8 | x8 | x9 | x8 | x8 | %19
 x8 | x8 | x8 | x8 | x8 | x8 |[M:3/8] x3 | x16 | x8 | x6 |[M:3/8] x3 | x4 | x8 ||[K:G] x4 | x8 | %34
 x4 | x8 | x4 | x6 | x4 ||[K:F][M:4/4] x8 | x8 | x8 | x8 | x8 | x8 | x8 | x8 | x8 ||[K:C] x8 | x8 | %50
 x8 | x8 | x8 | x8 | x8 | x8 | x8 | x8 | x8 | x8 | x8 | x8 | x8 | x8 | x8 | x8 | x8 | x8 | x9 | %69
 x8 | x8 | x8 | x8 |[M:3/4] x6 |[M:4/4] x8 |[M:3/4] x7 |[M:2/4] x6 | x4 | x6 | x4 | x6 | x4 | x6 | %83
 x4 | x6 | x4 | x5 | x6 | x5 | x4 | x9 | x8 | x8 | x8 | x16 | x8 | x8 | x8 | x8 | x4 | x10 | x8 | %102
 x8 |[M:2/4] x4 | x4 | x4 | x7 | x15 | x12 | x12 ||[K:A][M:3/4] x6 | x6 | x6 | x6 | x6 | x6 | x6 | %117
 x6 | x6 | x6 | x6 | x6 | x6 | x6 | x6 | x6 | x6 | x6 | x6 |[M:3/4] x6 | x6 | x6 |[M:3/8] x3 | x6 | %134
 x11/2 | x3 | x11/2 | x5 | x6 | x6 | x6 | x21/4 | x21/4 | x6 | x6 :| x6 | x6 |[M:4/4] x10 | x12 | %149
 x12 | x12 | x12 | x12 | x12 |[M:3/4] x6 |[M:4/4] x12 | (3(A,Ec) (c2!p! E2 A,2 (A,)Ec) (dEA,) x | %157
[K:treble] (CG/e) (eGC) (C(Ge)) (eGC) | (CG^e) (eGC) (CGe) (eGC) ||[M:2/4] (CG ^e) (e.GC) || %160
[M:3/4] x6 | x6 | x6 | x6 | x6 |[M:4/4] x8 | x8 |[M:3/4] x6 | x6 | x12 | x15 | x7 |[M:3/4] x12 | %173
 x8 | x9 | x8 | x8 | x8 | x8 | x8 | x8 | x8 | x7 | x8 |[M:3/4] x6 | x6 | x6 | x6 | x6 | x6 | x6 | %191
 x15/2 | x6 | x6 | x6 | x6 | x6 | x6 | x6 | x6 | x6 | x6 | x6 | x6 | x6 | x6 | x6 | x6 | x6 | x6 | %210
 x6 | x6 | x6 | x6 | x6 | x6 ||[K:F] x6 | x6 | x6 | x6 | x6 ||[K:C] x6 | x6 | x6 | x6 | x6 | x6 | %227
 x6 | x6 | x6 | x6 | x6 | x6 | x6 | x6 | x6 | x6 | x6 | x6 | x6 | x6 | x6 | x6 | x6 | x6 | x6 | %246
 x6 | x6 | x6 | x6 | x6 | x6 | x6 | x6 | x6 | x6 | x6 | x6 | x6 | x6 | %260
V:2
 x8 | x8 | x8 | x8 | x8 | x8 | x8 | x8 | x8 | x8 | x8 | x8 | x8 | x8 | x8 | x8 | x9 | x8 | x8 | %19
 x8 | x8 | x8 | x8 | x8 | x8 |[M:3/8] x3 | x16 | x8 | x6 |[M:3/8] x3 | x4 | x8 ||[K:G] x4 | x8 | %34
 x4 | x8 | x4 | x6 | x4 ||[K:F][M:4/4] x8 | x8 | x8 | x8 | x8 | x8 | x8 | x8 | x8 ||[K:C] x8 | x8 | %50
 x8 | x8 | x8 | x8 | x8 | x8 | x8 | x8 | x8 | x8 | x8 | x8 | x8 | x8 | x8 | x8 | x8 | x8 | x9 | %69
 x8 | x8 | x8 | x8 |[M:3/4] x6 |[M:4/4] x8 |[M:3/4] x7 |[M:2/4] x6 | x4 | x6 | x4 | x6 | x4 | x6 | %83
 x4 | x6 | x4 | x5 | x6 | x5 | x4 | x9 | x8 | x8 | x8 | x16 | x8 | x8 | x8 | x8 | x4 | x10 | x8 | %102
 x8 |[M:2/4] x4 | x4 | x4 | x7 | x15 | x12 | x12 ||[K:A][M:3/4] x6 | x6 | x6 | x6 | x6 | x6 | x6 | %117
 x6 | x6 | x6 | x6 | x6 | x6 | x6 | x6 | x6 | x6 | x6 | x6 |[M:3/4] x6 | x6 | x6 |[M:3/8] x3 | x6 | %134
 x11/2 | x3 | x11/2 | x5 | x6 | x6 | x6 | x21/4 | x21/4 | x6 | x6 :| x6 | x6 |[M:4/4] x10 | x12 | %149
 x12 | x12 | x12 | x12 | x12 |[M:3/4] x6 |[M:4/4] x12 | x13 A,2 |[K:treble] x23/2 | x12 || %159
[M:2/4] x6 ||[M:3/4] x6 | x6 | x6 | x6 | x6 |[M:4/4] x8 | x8 |[M:3/4] x6 | x6 | x12 | x15 | x7 | %172
[M:3/4] x12 | x8 | x9 | x8 | x8 | x8 | x8 | x8 | x8 | x8 | x7 | x8 |[M:3/4] x6 | x6 | x6 | x6 | %188
 x6 | x6 | x6 | x15/2 | x6 | x6 | x6 | x6 | x6 | x6 | x6 | x6 | x6 | x6 | x6 | x6 | x6 | x6 | x6 | %207
 x6 | x6 | x6 | x6 | x6 | x6 | x6 | x6 | x6 ||[K:F] x6 | x6 | x6 | x6 | x6 ||[K:C] x6 | x6 | x6 | %224
 x6 | x6 | x6 | x6 | x6 | x6 | x6 | x6 | x6 | x6 | x6 | x6 | x6 | x6 | x6 | x6 | x6 | x6 | x6 | %243
 x6 | x6 | x6 | x6 | x6 | x6 | x6 | x6 | x6 | x6 | x6 | x6 | x6 | x6 | x6 | x6 | x6 | %260
V:3
!f! .D, z D,2 x4 | D, z!mf! [A,EA] z x4 | D, z D,2 x4 | z z .[DF] z x4 | .D, z D,2 x4 | %5
 .D, z .[DF] z x4 | .D,2 z!f!!>)!!>(! [D,A,]2!<)!!<(! d!>!d x | dd B2 x4 | %8
 D, z [D,A,]2!<)!!<(! !>!d!>!d x2 | dd B2 x4 | D, z [DF]4 x2 | .D, z [D,A,F] z x4 | %12
 .D, z [D,A,]2 x4 | .[A,EA] z !>!G!>!A!mf! !>!E!>!F =C!>!D | A, z !>!d!>!e x4 | %15
 .A, z !>!G!>!A !>!E!>!F C!>!D | .A,2!mf! !>!E!>!F (!>!G !>!A)!>!F!>!E!>![EA] | A, A-AA BAAE | %18
 A, B^dd[K:treble] x4 | e^cd!tenuto!B efde |!f!!mf! eA x6 | (AG) EDDC x2 | _B,A,B,A, G,F,E,D, | %23
 F,E, E,E, x4 |!ff! .E, z!f! [DE]2 !tenuto![DA]2 x2 |[M:3/8][K:bass]!f! x3 | %26
 .A,,2 E,8 A,4 !tenuto![E,B,]2 | z2[K:treble] g4 !tenuto!_b2 | =c'2 [Af]4 |[M:3/8] c2 x | %30
!ff! .[cd'] z c2 | e6 c2 ||[K:G][K:alto] [FB] z D2 | ^C6!f! ^A,2 | .[^C^F] z ^A,2 | [D^F]6 .F2 | %36
 [^F^c] z F2 | [FFd]4!p! [Fd]2 | .A, z [A,G]2 ||[K:F][M:4/4] z [A,F]2 [_B,G-]4 x | %40
!f! [B,G]2 C2 x4 | A8 | [A,A]4 x4 | A8- | M[B,A]2 ^G2 x4 |!ff! A,8 | .A,2 z2 x4 | A,8 || %48
[K:C]!p! A,2 z2 x4 |!mp! A,8 | .A,2 z2 x4 | z2!p! G4 A2 | %52
 !tenuto!B!ped!AG!>)! z !tenuto!A!>(!(G!ff!A) z | z2 F4 (G!mp!A) | !tenuto!AGA z !tenuto!FAE z | %55
 A2 FA x4 | z E-E.D CCB,B, | z DCF EAAE | z!mf! FFE DADF | F(DF)D x4 | z!mf! E!p!(ED C!mp!G)CE | %61
 ECEC x4 |!mf! A2 ^d2 x4 | [EA]4 x4 | !>![FA]2!mf! [F-^c]2 [FA_B]4 | [F_B]4 x4 | [^FA_B]4 [Gc]4 | %67
 !>!A2 !>!A2 x4 |!mp! !>!c2!ped! z!f! [_B,D]4 G,2 |!mf! .[_B,D] z [B,D]4 M[B,D] z | %70
 z2 [_B,D]4 !tenuto![B,D]2 | !>![_B,D] z!mp! B,4- !tenuto![B,D] z | z2 _E4 _D2 | %73
[M:3/4]!mp! ._E z _D2!>(! E2 | x2!>)![M:4/4] G4 [_DG]2 [DG]2 |[M:3/4] .[_DG]2 z A2 A,2 | %76
[M:2/4] [A,Fd] z D,4 | [De] z D2 | [Df] z [D,D]4 | .[DF] z D,2 | [D,A,F] z D,4 | .[DF] z D,2 | %82
 D, z [D,A,]2!<)!!<(! !>!d!>!d | dd B z | .D, z [D,A,]2!<)!!<(! !>!d!>!d | dd B z | dB A2 z | %87
 .D, z [D,A,]2 !>!A!>!B | (BA) A2!ped! z | A-A F z | [D,D]2 z [GAB]4 !>![G=B]2 | !>![Gc]4 _A2 _B2 | %92
 !>!=B4 !>!_A2 !>!._E2 |!>(! C2 !>!_A,2!>)!!>(! F,2!>)!!>(! F,2!>)! | .B,8!p! [F,B,]4 [_E,C]4 | %95
!p! [G,^C]4 [F,D]4 | [A,^D]4 !>![G,E]2 .[_B,E]2 | A,2 ^C!>(!A, =B,2 =DB,!>)! | %98
 (^C2!>(! E!<)!!<(!C) !>!^D2!>)!!>(! ^F!>)!!>(!D!>)! | !>!^F2!mf!!>)!!>(! A2 | %100
 z2!ff! =c4 A2 !>!^F2 | !>!=B2 !>!d2 !>!_B2 !>!G2 | _E2 ^C2 _B,2 !>!_E,2 |[M:2/4] ^F, z [D,A,D]2 | %104
 .D, z [_B,E]2 | .D, z [A,DA]2 |!ff! [DD]2 z2 z [_EG]2 | !>!D D8 .F4 [EG]2 | D z _A2 B,8 | %109
 G,4 D8 ||[K:A][M:3/4]!f!!mf! (B.G/) A4 x/ | (B.G/) A4 x/ | !tenuto!B!tenuto!c !tenuto!d2 (cB) | %113
 (A>.F) G4 |!mp! (A>.E) F4 | (E>.C)!mf! (D>.B,)!<)!!<(! C2- | %116
 C!tenuto!F!>)! !tenuto!D!tenuto!C!>(! B,!tenuto!G, | (!tenuto!E,>D,) C,4 |!mf! (G>E) F4 | %119
!mp! (G>.E) F4 | !tenuto!G!tenuto!A !tenuto!B2 (AG) | x6 | x6 |!mf! =F.D/ (=E>.C) (D>.G,) x/ | %124
 Gc cG x2 | (e^c) x4 |!f! (!tenuto!A>!mf!G)!>)!!>(! F4 | (.E2!>(! (!tenuto!^C) !tenuto!^D2- x!>)! | %128
 D4) z2 |[M:3/4]!p!!>(!!>(! (=g!>)!=e)!>(! ((!>!=f!>)!=d))!>)!!>(!!>(! (_e!>)!(=c)!>)! | %130
!>(!!>(! (=e)!>)!^c)!>)!!>(!!>(! (d!>)!B)!>)!!>(!!>(! (=c!>)!A)!>)! | %131
!mp!!>(! ((!>!_d!>)!_B)) (((!>!=B_A)))!>(! (!>!^G!>)!^F) |[M:3/8] x3 |!f! (!>!=e>.=c) !>!d4 | %134
!p!!>(! (=F.D<)E z/!ff! (F>.D) | x/!>)!!ff!!>(! (!>!=F>.D) x | x5/2!>)! %136
 !>!E>.^C (!>!D!p!.B,/)!>(! (C2- | C2!>)! C.^A,/) (B,.G,/) |!p! ^A,6- | A,2!>)!!>(! (^A,4 | %140
!<(! A,4)!<)! !tenuto!G,!pp!!ff!!tenuto!=G, |!ff! (.F,3/4=D,/)!ff!!>)!!>(! ^E,4 | %142
!ff! (.F,3/4D,/)!>)!!>(! ^E,4 | %143
!p!!<(! F, !>!!tenuto!C!>!B,!<)!!>!!tenuto!A,!>(! (!tenuto!G,>!>)!.=E,) |!>(! F,6!>)! :| %145
!p!!p! !tenuto!E,4!>)!!>(! !tenuto!D,2 |!pp! !fermata!C,6 | %147
[M:4/4]!p! (3(F,C!ff!^A) (3(ACF,) (F,C!ff!A) (ACF,) | F,(C^A) (ACF,) (F,CA) (ACF,) | %149
 (F,C^A)!p! (ACF,) F,(C!pp!A) (ACF,) |!<(! ((F,!<)!D)B)!p! (BF)F, (F,^D!>(!(^B) (=B=D)!>)!F,) | %151
!p! (F,C^A) (ACF,) (F,CA) (ACF,) | (F,C^A) (ACF,) (F,CA) (ACF,) | (F,C^A) (ACF,) (F,CA) (ACF,) | %154
[M:3/4] (F,C ^A) (ACF,) |[M:4/4] (=A,Ec) (dEA,) (A,Ec) (dEA,) | z4 x4 z2 x!mf!!<(! c!<)!^d x2 | %157
!>(! ^e8- x7/2 | x7/2!>)! e8- x4 ||[M:2/4] e4 x2 ||[M:3/4]!pp! g6- | g6- | g6 | g6 | g6 | %165
[M:4/4]!>(! =g2-!>)! g z z2 z2 | x8 |[M:3/4]!p! [A-d]4 x2 |!p! [Ad]4 x2 | %169
 A4!mf! ^c4!<(! =d2!<)! !tenuto!ed | !tenuto!c2 !turn!c8!pp!!>(! A!>)! c2!f! !tenuto!f2- | %171
 f2 !tenuto!^e2!>(! (=e2!>)! d) |[M:3/4] [Fc]4!>(! c'^g!>)!eB!p!!<(! ^GB!<)!(eg) | %173
 a2!p! d z =f2 a=c' |!mf! c'2 e2 z!<(! =A2 c!<)!e |!f! e4 =d2 e!f!f | %176
!<(! !tenuto!=g2!ff! !tenuto!e4 g2!<)! | f2!>(! c4!>)! z2 |!p!!<(! ^G8!<)! |!p! F8 | E8- | %181
!<(! !tenuto!ME8!<)! |!ff!!f! [A,Fd].A/!>)!!>(! B2- BG/ !>!A>.F | G4- G>!>(!.^E F>!>)!.^D | %184
[M:3/4]!p!!ped! ^E4- x2 | E2 !>!^E4- |!<(! E4 !tenuto!^D!<)!=D |!ff!!p! C.A,/ ^B,4 x/ | %188
 C.A,/ ^B,4 x/ |!<(! C4- C!ped!!>)!!>(!G,!<)! |!p!!>(! [G,G]6-!>)! | %191
 [G,G]2- [G,G] F, G, A,/B,/.C/=D/E/ |!ff! F4!>)!!>(! C2 |!ff!!>(! F4!>)! C2 | %194
!<(! B,C!<)! DE!>(! F!>)!G | AF!>(! !tenuto!=D2!>)! C x |!p! C4 F,G, | %197
 A,2!<(! G,2!<)! !tenuto!=G,2 | F,4 F,2 |!ff! E,2 D,2 C,2 |!ff!!mp! G>.E F4 | G>E F4 | %202
 GA- !tenuto!B2 AG | F3/2.^D x7/2 | x6 | x6 |!mp! E>.C D>.B, (C>.F,) | G,C CG, F,^D, | %208
 (!tenuto!F,>^D,) ^E,4 |!pp! !tenuto!F,4 !tenuto!^D,2 |!mp! !tenuto!^E,6 |!p! ^E,6 | .^E,6 | x6 | %214
 x6 | x6 ||[K:F] x6 | x6 | x6 | x6 | x6 ||[K:C] x6 | x6 | x6 | x6 | x6 | x6 | x6 | x6 | x6 | x6 | %231
 x6 | x6 | x6 | x6 | x6 | x6 | x6 | x6 | x6 | x6 | x6 | x6 | x6 | x6 | x6 | x6 | x6 | x6 | x6 | %250
 x6 | x6 | x6 | x6 | x6 | x6 | x6 | x6 | x6 | x6 | %260
V:4
 x8 | x8 | x8 | D, x7 | x8 | x8 | x8 | x8 | x8 | x8 | x8 | x8 | x8 | x8 | x8 | x8 | x9 | x8 | %18
 x4[K:treble] x4 | x8 | x8 | x8 | x8 | x8 | x8 |[M:3/8][K:bass] x3 | x16 | .A, z[K:treble] x6 | %28
 x6 |[M:3/8] x3 | x4 | x8 ||[K:G][K:alto] x4 | x8 | x4 | x8 | x4 | x6 | x4 ||[K:F][M:4/4] x8 | x8 | %41
 A,8 | x8 | A,8 | x2 z x5 | x8 | x8 | x8 ||[K:C] x8 | x8 | x8 | x8 | x8 | x8 | x8 | x8 | x8 | x8 | %58
 x8 | x8 | x8 | x8 | ^D4 [DA]4 | x8 | x8 | x8 | x8 | x8 | x9 | x8 | x8 | x8 | x8 |[M:3/4] x6 | %74
[M:4/4] x8 |[M:3/4] x7 |[M:2/4] x6 | x4 | x6 | x4 | x6 | x4 | x6 | x4 | x6 | x4 | x5 | x6 | x5 | %89
 x4 | x9 | x8 | x8 | x8 | x16 | x8 | x8 | x8 | x8 | x4 | x10 | x8 | x8 |[M:2/4] x4 | x4 | x4 | x7 | %107
 x15 | x4 G,4 !>![E,E,] z .!tenuto![E,_C_A]2 | x12 ||[K:A][M:3/4] x6 | x6 | x6 | x6 | x6 | x6 | %116
 x6 | x6 | x6 | x6 | x6 | x6 | x6 | x6 | x6 | x6 | x6 | x6 | x6 |[M:3/4] x6 | x6 | x6 |[M:3/8] x3 | %133
 x6 | x11/2 | x3 | x11/2 | x5 | x6 | x6 | x6 | x21/4 | x21/4 | x6 | x6 :| x6 | x6 |[M:4/4] x10 | %148
 x12 | x12 | x12 | x12 | x12 | x12 |[M:3/4] x6 |[M:4/4] x12 | x15 | x23/2 | x12 ||[M:2/4] x6 || %160
[M:3/4] x6 | x6 | x6 | x6 | x6 |[M:4/4] x8 | x8 |[M:3/4] x6 | x6 | x12 | x15 | x7 |[M:3/4] x12 | %173
 x8 | x9 | x8 | x8 | x8 | x8 | x8 | x8 | x8 | x7 | x8 |[M:3/4] x6 | x6 | x6 | x6 | x6 | x6 | x6 | %191
 x3 A, B, [A,C]/[B,=D]/E/F/[EG]/ | x6 | x6 | x6 | x6 | x6 | x6 | x6 | x6 | x6 | x6 | x6 | x6 | x6 | %205
 x6 | x6 | x6 | x6 | x6 | x6 | x6 | x6 | x6 | x6 | x6 ||[K:F] x6 | x6 | x6 | x6 | x6 ||[K:C] x6 | %222
 x6 | x6 | x6 | x6 | x6 | x6 | x6 | x6 | x6 | x6 | x6 | x6 | x6 | x6 | x6 | x6 | x6 | x6 | x6 | %241
 x6 | x6 | x6 | x6 | x6 | x6 | x6 | x6 | x6 | x6 | x6 | x6 | x6 | x6 | x6 | x6 | x6 | x6 | x6 | %260

